icons/gallery-fill.svg

<svg viewBox="0 0 24 24" fill="currentColor" xmlns="http://www.w3.org/2000/svg">
    <path d="M17.409 19C16.633 16.6012 15.1323 15.1147 13.1434 13.3979C15.0238 11.8971 17.4071 11 20 11V3H21.0082C21.556 3 22 3.44495 22 3.9934V20.0066C22 20.5552 21.5447 21 21.0082 21H2.9918C2.44405 21 2 20.5551 2 20.0066V3.9934C2 3.44476 2.45531 3 2.9918 3H6V1H8V5H4V12C9.22015 12 13.6618 14.4616 15.3127 19H17.409ZM18 1V5H10V3H16V1H18ZM16.5 10C15.6716 10 15 9.32843 15 8.5C15 7.67157 15.6716 7 16.5 7C17.3284 7 18 7.67157 18 8.5C18 9.32843 17.3284 10 16.5 10Z"/>
</svg>

<svg xmlns="http://www.w3.org/2000/svg" viewBox="0 0 24 24">
    <g>
        <path fill="none" d="M0 0h24v24H0z"/>
        <path d="M17.409 19c-.776-2.399-2.277-3.885-4.266-5.602A10.954 10.954 0 0 1 20 11V3h1.008c.548 0 .992.445.992.993v16.014a1 1 0 0 1-.992.993H2.992A.993.993 0 0 1 2 20.007V3.993A1 1 0 0 1 2.992 3H6V1h2v4H4v7c5.22 0 9.662 2.462 11.313 7h2.096zM18 1v4h-8V3h6V1h2zm-1.5 9a1.5 1.5 0 1 1 0-3 1.5 1.5 0 0 1 0 3z"/>
    </g>
</svg>
